icons/circle/48/gweled.svg

<svg viewBox="0 0 48 48" xmlns="http://www.w3.org/2000/svg" xmlns:xlink="http://www.w3.org/1999/xlink">
 <defs>
  <linearGradient id="linearGradient3764" x1="1" x2="47" gradientTransform="matrix(0 -1 1 0 -1.5e-6 48)" gradientUnits="userSpaceOnUse">
   <stop style="stop-color:#bad1d6" offset="0"/>
   <stop style="stop-color:#c6d9dd" offset="1"/>
  </linearGradient>
  <linearGradient id="linear0" x1="243.07" x2="319.35" y1="568.62" y2="382.07" gradientTransform="matrix(.041209 0 0 .057047 5.0232 -1.6161)" gradientUnits="userSpaceOnUse">
   <stop style="stop-color:#00629c" offset="0"/>
   <stop style="stop-color:#92b9c6;stop-opacity:.392" offset="1"/>
  </linearGradient>
  <linearGradient id="linear1" x1="239.5" x2="677.44" y1="372.62" y2="610.43" gradientTransform="matrix(.03561 0 0 .066012 5.0232 -1.6161)" gradientUnits="userSpaceOnUse">
   <stop style="stop-color:#ececec;stop-opacity:.706" offset="0"/>
   <stop style="stop-color:#2db2c8" offset="1"/>
  </linearGradient>
  <linearGradient id="linear2" x1="871.16" x2="768.11" y1="413.99" y2="573.2" gradientTransform="matrix(.040429 0 0 .05811 5.0232 -1.6161)" gradientUnits="userSpaceOnUse" xlink:href="#linear1"/>
  <linearGradient id="linear3" x1="175.09" x2="342.98" y1="847.02" y2="901.72" gradientTransform="matrix(.1058 0 0 .022216 5.0232 -1.6161)" gradientUnits="userSpaceOnUse" xlink:href="#linear1"/>
  <linearGradient id="linearGradient3475" x1="239.5" x2="677.44" y1="372.62" y2="610.43" gradientTransform="matrix(.03561 0 0 .066012 5.0232 -1.6161)" gradientUnits="userSpaceOnUse" xlink:href="#linear1"/>
 </defs>
 <path d="m36.31 5c5.859 4.062 9.688 10.831 9.688 18.5 0 12.426-10.07 22.5-22.5 22.5-7.669 0-14.438-3.828-18.5-9.688 1.037 1.822 2.306 3.499 3.781 4.969 4.085 3.712 9.514 5.969 15.469 5.969 12.703 0 23-10.298 23-23 0-5.954-2.256-11.384-5.969-15.469-1.469-1.475-3.147-2.744-4.969-3.781zm4.969 3.781c3.854 4.113 6.219 9.637 6.219 15.719 0 12.703-10.297 23-23 23-6.081 0-11.606-2.364-15.719-6.219 4.16 4.144 9.883 6.719 16.219 6.719 12.703 0 23-10.298 23-23 0-6.335-2.575-12.06-6.719-16.219z" style="opacity:.05"/>
 <path d="m41.28 8.781c3.712 4.085 5.969 9.514 5.969 15.469 0 12.703-10.297 23-23 23-5.954 0-11.384-2.256-15.469-5.969 4.113 3.854 9.637 6.219 15.719 6.219 12.703 0 23-10.298 23-23 0-6.081-2.364-11.606-6.219-15.719z" style="opacity:.1"/>
 <path d="m31.25 2.375c8.615 3.154 14.75 11.417 14.75 21.13 0 12.426-10.07 22.5-22.5 22.5-9.708 0-17.971-6.135-21.12-14.75a23 23 0 0 0 44.875-7 23 23 0 0 0-16-21.875z" style="opacity:.2"/>
 <path d="m24 1c12.703 0 23 10.297 23 23s-10.297 23-23 23-23-10.297-23-23 10.297-23 23-23z" style="fill:url(#linearGradient3764)"/>
 <path d="m17.5 14h15l5.5 6-13 18-13-18z" style="fill-rule:evenodd;opacity:.1"/>
 <path d="m40.03 7.531c3.712 4.084 5.969 9.514 5.969 15.469 0 12.703-10.297 23-23 23-5.954 0-11.384-2.256-15.469-5.969 4.178 4.291 10.01 6.969 16.469 6.969 12.703 0 23-10.298 23-23 0-6.462-2.677-12.291-6.969-16.469z" style="opacity:.1"/>
 <path d="m16.5 13h15l5.5 6-13 18-13-18z" style="fill-rule:evenodd;fill:#2a2a2a"/>
 <path d="m17.5 14.5h13l4.5 4.5-11 15.5-11-15.5z" style="fill-rule:evenodd;fill:#25acba"/>
 <path d="m24 34.5 11-15.5h-11" style="fill-rule:evenodd;fill:#0a62a1"/>
 <path d="m24 34.495-11-15.495h11" style="fill-rule:evenodd;fill:url(#linear0)"/>
 <path d="m24 34.5-4.84-14.273-2.83 3.473" style="fill-rule:evenodd;fill:url(#linearGradient3475)"/>
 <path d="M 29.363,19.512 35,19 24,34.5" style="fill-rule:evenodd;fill:url(#linear2)"/>
 <path d="m13.94 18.6 20.26 0.4-3.55-4.3-12.82 0.398" style="fill-rule:evenodd;fill:url(#linear3)"/>
</svg>

<svg xmlns="http://www.w3.org/2000/svg" xmlns:xlink="http://www.w3.org/1999/xlink" viewBox="0 0 48 48">
 <defs>
  <linearGradient id="linearGradient3764" x1="1" x2="47" gradientUnits="userSpaceOnUse" gradientTransform="matrix(0,-1,1,0,-1.5e-6,47.999998)">
   <stop style="stop-color:#bad1d6;stop-opacity:1"/>
   <stop offset="1" style="stop-color:#c6d9dd;stop-opacity:1"/>
  </linearGradient>
  <linearGradient id="linear0" gradientUnits="userSpaceOnUse" x1="243.07" y1="568.62" x2="319.35" y2="382.07" gradientTransform="matrix(0.0412087,0,0,0.0570472,5.02324,-1.616067)">
   <stop style="stop-color:#00629c;stop-opacity:1"/>
   <stop offset="1" style="stop-color:#92b9c6;stop-opacity:0.392"/>
  </linearGradient>
  <linearGradient id="linear1" gradientUnits="userSpaceOnUse" x1="239.5" y1="372.62" x2="677.44" y2="610.43" gradientTransform="matrix(0.0356102,0,0,0.0660118,5.02324,-1.616067)">
   <stop style="stop-color:#ececec;stop-opacity:0.706"/>
   <stop offset="1" style="stop-color:#2db2c8;stop-opacity:1"/>
  </linearGradient>
  <linearGradient id="linear2" gradientUnits="userSpaceOnUse" x1="871.16" y1="413.99" x2="768.11" y2="573.2" gradientTransform="matrix(0.0404291,0,0,0.0581102,5.02324,-1.616067)" xlink:href="#linear1"/>
  <linearGradient id="linear3" gradientUnits="userSpaceOnUse" x1="175.09" y1="847.02" x2="342.98" y2="901.72" gradientTransform="matrix(0.105803,0,0,0.0222165,5.02324,-1.616067)" xlink:href="#linear1"/>
  <linearGradient y2="610.43" x2="677.44" y1="372.62" x1="239.5" gradientTransform="matrix(0.0356102,0,0,0.0660118,5.02324,-1.616067)" gradientUnits="userSpaceOnUse" id="linearGradient3475" xlink:href="#linear1"/>
 </defs>
 <g>
  <path d="m 36.31 5 c 5.859 4.062 9.688 10.831 9.688 18.5 c 0 12.426 -10.07 22.5 -22.5 22.5 c -7.669 0 -14.438 -3.828 -18.5 -9.688 c 1.037 1.822 2.306 3.499 3.781 4.969 c 4.085 3.712 9.514 5.969 15.469 5.969 c 12.703 0 23 -10.298 23 -23 c 0 -5.954 -2.256 -11.384 -5.969 -15.469 c -1.469 -1.475 -3.147 -2.744 -4.969 -3.781 z m 4.969 3.781 c 3.854 4.113 6.219 9.637 6.219 15.719 c 0 12.703 -10.297 23 -23 23 c -6.081 0 -11.606 -2.364 -15.719 -6.219 c 4.16 4.144 9.883 6.719 16.219 6.719 c 12.703 0 23 -10.298 23 -23 c 0 -6.335 -2.575 -12.06 -6.719 -16.219 z" style="opacity:0.05"/>
  <path d="m 41.28 8.781 c 3.712 4.085 5.969 9.514 5.969 15.469 c 0 12.703 -10.297 23 -23 23 c -5.954 0 -11.384 -2.256 -15.469 -5.969 c 4.113 3.854 9.637 6.219 15.719 6.219 c 12.703 0 23 -10.298 23 -23 c 0 -6.081 -2.364 -11.606 -6.219 -15.719 z" style="opacity:0.1"/>
  <path d="m 31.25 2.375 c 8.615 3.154 14.75 11.417 14.75 21.13 c 0 12.426 -10.07 22.5 -22.5 22.5 c -9.708 0 -17.971 -6.135 -21.12 -14.75 a 23 23 0 0 0 44.875 -7 a 23 23 0 0 0 -16 -21.875 z" style="opacity:0.2"/>
 </g>
 <g>
  <path d="m 24 1 c 12.703 0 23 10.297 23 23 c 0 12.703 -10.297 23 -23 23 -12.703 0 -23 -10.297 -23 -23 0 -12.703 10.297 -23 23 -23 z" style="fill:url(#linearGradient3764);fill-opacity:1"/>
 </g>
 <path d="m 17.5,14 15,0 L 38,20 25,38 12,20 Z" style="fill:#000;opacity:0.1;fill-opacity:1;stroke:none;fill-rule:evenodd"/>
 <g>
  <path d="m 40.03 7.531 c 3.712 4.084 5.969 9.514 5.969 15.469 0 12.703 -10.297 23 -23 23 c -5.954 0 -11.384 -2.256 -15.469 -5.969 4.178 4.291 10.01 6.969 16.469 6.969 c 12.703 0 23 -10.298 23 -23 0 -6.462 -2.677 -12.291 -6.969 -16.469 z" style="opacity:0.1"/>
 </g>
 <g>
  <path d="m 16.5,13 15,0 L 37,19 24,37 11,19 Z" style="fill:#2a2a2a;fill-opacity:1;stroke:none;fill-rule:evenodd"/>
  <path d="m 17.5,14.5 13,0 L 35,19 24,34.5 13,19 Z" style="fill:#25acba;fill-opacity:1;stroke:none;fill-rule:evenodd"/>
  <g>
   <g>
    <!-- color: #c6d9dd -->
    <g>
     <path d="M 24,34.5 35,19 24,19" style="fill:#0a62a1;fill-opacity:1;stroke:none;fill-rule:evenodd"/>
     <path d="M 24,34.495 13,19 24,19" style="fill:url(#linear0);stroke:none;fill-rule:evenodd"/>
     <path d="M 24,34.5 19.16,20.227 16.33,23.7" style="fill:url(#linearGradient3475);stroke:none;fill-rule:evenodd"/>
     <path d="M 29.363,19.512 35,19 24,34.5" style="fill:url(#linear2);stroke:none;fill-rule:evenodd"/>
     <path d="M 13.94,18.6 34.2,19 30.65,14.7 17.83,15.098" style="fill:url(#linear3);stroke:none;fill-rule:evenodd"/>
    </g>
   </g>
  </g>
 </g>
</svg>
